X: 157
P: Longways for as many as will
M: 6/4
L: 1/4
K: G
g |\
dgB A2G | BdB g2a | b>ab g>fe | a>ga f2(e//f//g/) |\
d2B A2G | B>cd g>ag | f2e e2d | d3- d2 |]
a |\
f>ed B>gf | g2a b2a | g>ag f>ed | e>fe B2c |\
d>ed c2B | A3- A2B | A2G F2E | FA2 D2c |\

